svg/misc/user-waiter-female.svg

<svg width="512" height="512" viewBox="0 0 512 512" version="1.1" xmlns="http://www.w3.org/2000/svg"><path fill="currentColor" d="M256,512l-208,0c-2.84,-16.436 -11.062,-36.722 -19.916,-58.569c-13.326,-32.877 -28.084,-69.289 -28.084,-101.431c24.171,-29.938 66.956,-40.385 107.27,-50.228c17.388,-4.246 34.317,-8.379 49.094,-13.916c1.697,1.908 3.272,11.817 4.727,29.727c1.454,17.91 3.515,38.311 6.182,61.202c2.666,22.892 5.939,38.06 9.818,49.506c1.697,5.087 5.212,9.326 10.545,12.717c5.334,3.391 9.94,5.511 13.819,6.359c3.256,0.712 6,0.675 8.232,0.644c0.426,-0.006 0.833,-0.011 1.222,-0.011l45.091,0l0,0.144l45.091,0c0.389,0 0.796,0.006 1.222,0.011c2.232,0.031 4.976,0.068 8.232,-0.644c3.879,-0.848 8.485,-2.968 13.819,-6.359c5.333,-3.391 8.848,-7.63 10.545,-12.717c3.879,-11.446 7.152,-26.614 9.818,-49.506c2.667,-22.891 4.728,-43.292 6.182,-61.202c1.455,-17.91 3.03,-27.819 4.727,-29.727c14.777,5.537 31.706,9.67 49.094,13.916c40.314,9.843 83.099,20.29 107.27,50.228c0,32.142 -14.758,68.554 -28.084,101.431c-8.849,21.834 -17.066,42.109 -19.916,58.569l-208,0l0,-0.144Zm16,-96c0,8.837 -7.163,16 -16,16c-8.837,0 -16,-7.163 -16,-16c0,-8.837 7.163,-16 16,-16c8.837,0 16,7.163 16,16Zm-16,-32c8.837,0 16,-7.163 16,-16c0,-8.837 -7.163,-16 -16,-16c-8.837,0 -16,7.163 -16,16c0,8.837 7.163,16 16,16Zm0,-96l-64,-16l0,64l64,-14l64,14l0,-64l-64,16Zm134.602,-20.439c-22.527,3.992 -46.807,-3.867 -72.839,-23.575c-19.774,12.972 -41.551,19.459 -65.33,19.459c-21.526,0 -41.676,-5.364 -60.449,-16.091c-8.51,5.488 -20.588,11.226 -36.232,17.213c-15.644,5.988 -26.845,8.358 -33.604,7.11c11.014,-12.473 16.646,-22.452 16.896,-29.936c-5.507,4.241 -12.015,7.421 -19.524,9.542c-7.509,2.12 -13.016,2.058 -16.52,-0.187c14.017,-10.728 23.279,-38.17 27.784,-82.327c0,-0.748 0.25,-9.417 0.751,-26.007c0.501,-16.59 1.314,-33.243 2.44,-49.958c1.127,-16.714 2.566,-27.691 4.318,-32.93c6.258,-18.461 21.401,-33.056 45.431,-43.783c24.029,-10.727 46.932,-16.091 68.709,-16.091c15.769,0 35.419,4.116 58.947,12.349c23.529,8.233 39.048,17.713 46.557,28.44c6.008,8.482 10.013,18.336 12.015,29.563c2.003,11.226 3.192,26.881 3.567,46.963c0.375,20.083 1.064,35.613 2.065,46.59c2.002,19.957 5.006,35.674 9.011,47.15c4.005,11.476 12.14,22.578 24.405,33.305c-7.259,2.495 -14.706,2.994 -22.34,1.497c-7.634,-1.497 -13.454,-4.865 -17.459,-10.104c2.253,14.22 9.387,24.823 21.401,31.808Zm-209.131,-131.722c-5.256,35.924 -6.758,61.37 -4.505,76.339c20.274,22.203 45.43,33.305 75.467,33.305c17.021,0 32.915,-3.93 47.684,-11.788c14.768,-7.858 26.908,-18.524 36.419,-31.995c-0.25,-0.998 -0.751,-4.553 -1.502,-10.665c-0.751,-6.112 -1.314,-10.353 -1.689,-12.723c-0.376,-2.37 -1.127,-6.487 -2.253,-12.349c-1.126,-5.863 -2.315,-10.478 -3.567,-13.846c-1.251,-3.368 -2.753,-7.36 -4.505,-11.975c-1.753,-4.615 -3.943,-8.794 -6.571,-12.536c-2.628,-3.742 -5.444,-7.235 -8.448,-10.478c-5.757,1.248 -14.205,2.308 -25.343,3.181c-11.139,0.873 -23.529,0.811 -37.171,-0.187c-13.642,-0.998 -22.84,-3.618 -27.596,-7.859c4.505,-7.484 6.007,-15.218 4.505,-23.201c-0.5,-2.744 -3.129,-6.05 -7.884,-9.916c-4.756,-3.867 -8.01,-5.426 -9.762,-4.678c-10.263,4.989 -18.022,25.446 -23.279,61.371Z"></path></svg>

<svg width="512" height="512" viewBox="0 0 512 512" fill="none" xmlns="http://www.w3.org/2000/svg">
<g clip-path="url(#clip0)">
<path fill-rule="evenodd" clip-rule="evenodd" d="M390.602 267.561C368.075 271.553 343.795 263.694 317.763 243.986C297.989 256.958 276.212 263.445 252.433 263.445C230.907 263.445 210.757 258.081 191.984 247.354C183.474 252.842 171.396 258.58 155.752 264.567C140.108 270.555 128.907 272.925 122.148 271.677C133.162 259.204 138.794 249.225 139.044 241.741C133.537 245.982 127.029 249.162 119.52 251.283C112.011 253.403 106.504 253.341 103 251.096C117.017 240.368 126.279 212.926 130.784 168.769C130.784 168.021 131.034 159.352 131.535 142.762C132.036 126.172 132.849 109.519 133.975 92.8044C135.102 76.0896 136.541 65.1127 138.293 59.8738C144.551 41.4127 159.694 26.8185 183.724 16.0911C207.753 5.36369 230.656 0 252.433 0C268.202 0 287.852 4.1163 311.38 12.349C334.909 20.5816 350.428 30.0616 357.937 40.789C363.945 49.2711 367.95 59.1254 369.952 70.3517C371.955 81.5781 373.144 97.2326 373.519 117.315C373.894 137.398 374.583 152.928 375.584 163.905C377.586 183.862 380.59 199.579 384.595 211.055C388.6 222.531 396.735 233.633 409 244.36C401.741 246.855 394.294 247.354 386.66 245.857C379.026 244.36 373.206 240.992 369.201 235.753C371.454 249.973 378.588 260.576 390.602 267.561ZM181.471 135.839C176.215 171.763 174.713 197.209 176.966 212.178C197.24 234.381 222.396 245.483 252.433 245.483C269.454 245.483 285.348 241.553 300.117 233.695C314.885 225.837 327.025 215.171 336.536 201.7C336.286 200.702 335.785 197.147 335.034 191.035C334.283 184.923 333.72 180.682 333.345 178.312C332.969 175.942 332.218 171.825 331.092 165.963C329.966 160.1 328.777 155.485 327.525 152.117C326.274 148.749 324.772 144.757 323.02 140.142C321.267 135.527 319.077 131.348 316.449 127.606C313.821 123.864 311.005 120.371 308.001 117.128C302.244 118.376 293.796 119.436 282.658 120.309C271.519 121.182 259.129 121.12 245.487 120.122C231.845 119.124 222.647 116.504 217.891 112.263C222.396 104.779 223.898 97.0455 222.396 89.0623C221.896 86.3181 219.267 83.0125 214.512 79.1457C209.756 75.2788 206.502 73.7196 204.75 74.468C194.487 79.4575 186.728 99.9144 181.471 135.839Z" fill="black"/>
<path d="M256 288L192 272V336L256 322L320 336V272L256 288Z" fill="black"/>
<path d="M256 384C264.837 384 272 376.837 272 368C272 359.163 264.837 352 256 352C247.163 352 240 359.163 240 368C240 376.837 247.163 384 256 384Z" fill="black"/>
<path d="M272 416C272 424.837 264.837 432 256 432C247.163 432 240 424.837 240 416C240 407.163 247.163 400 256 400C264.837 400 272 407.163 272 416Z" fill="black"/>
<path d="M210.909 448H256V512H48C45.1602 495.564 36.9381 475.278 28.0836 453.431C14.758 420.554 7.26225e-05 384.142 0 352C24.1706 322.062 66.9562 311.615 107.27 301.772C124.658 297.526 141.587 293.393 156.364 287.856C158.061 289.764 159.636 299.673 161.091 317.583C162.545 335.493 164.606 355.894 167.273 378.785C169.939 401.677 173.212 416.845 177.091 428.291C178.788 433.378 182.303 437.617 187.636 441.008C192.97 444.399 197.576 446.519 201.455 447.367C204.711 448.079 207.455 448.042 209.687 448.011C210.113 448.005 210.52 448 210.909 448Z" fill="black"/>
<path d="M256 448.144H301.091C301.48 448.144 301.887 448.15 302.313 448.155C304.545 448.186 307.289 448.223 310.545 447.511C314.424 446.663 319.03 444.543 324.364 441.152C329.697 437.761 333.212 433.522 334.909 428.435C338.788 416.989 342.061 401.821 344.727 378.929C347.394 356.038 349.455 335.637 350.909 317.727C352.364 299.817 353.939 289.908 355.636 288C370.413 293.537 387.342 297.67 404.73 301.916C445.044 311.759 487.829 322.206 512 352.144C512 384.286 497.242 420.698 483.916 453.575C475.062 475.422 466.84 495.708 464 512.144H256V448.144Z" fill="black"/>
</g>
<defs>
<clipPath id="clip0">
<rect width="512" height="512" fill="white"/>
</clipPath>
</defs>
</svg>
